private/icons/dark/slow_off.svg

<svg viewBox="0 0 36.9 17.8" xmlns="http://www.w3.org/2000/svg"><path d="m.2 15a18.72 18.72 0 0 1 16.6-14.6h.1c.5 0 1-.1 1.5-.1a7.57 7.57 0 0 1 1.5.1h.1a18.63 18.63 0 0 1 16.7 14.6.61.61 0 0 1 -.1.6c-.1.2-.5.3-.5.3h-35.3s-.4-.1-.5-.3a1.27 1.27 0 0 1 -.1-.6z" fill="#2485ce"/><path d="m19.8 17a.76.76 0 0 1 -.4-.2l-2.8-3.8a.6.6 0 0 1 -.1-.4c0-.1.1-.3.2-.3l16.3-9.1a.35.35 0 0 0 .2-.1.52.52 0 0 1 .4.2.49.49 0 0 1 -.1.7l-13.3 12.9c-.1.1-.2.1-.4.1z" fill="#fff"/><path d="m33.2 3.7-13.4 12.8-2.8-3.8zm0-1a.9.9 0 0 0 -.5.1l-16.2 9.1c-.3.1-.4.4-.5.7a.78.78 0 0 0 .2.8l2.8 3.8a1 1 0 0 0 .7.4h.1a.91.91 0 0 0 .7-.3l13.4-12.9a.94.94 0 0 0 .1-1.3.91.91 0 0 0 -.8-.4z" fill="#2485ce"/></svg>

<svg id="Layer_1" data-name="Layer 1" xmlns="http://www.w3.org/2000/svg" viewBox="0 0 36.9 17.8"><defs><style>.cls-1{fill:#2485ce;}.cls-2{fill:#fff;}</style></defs><path class="cls-1" d="M.2,15A18.72,18.72,0,0,1,16.8.4h.1c.5,0,1-.1,1.5-.1a7.57,7.57,0,0,1,1.5.1H20A18.63,18.63,0,0,1,36.7,15a.61.61,0,0,1-.1.6c-.1.2-.5.3-.5.3H.8s-.4-.1-.5-.3A1.27,1.27,0,0,1,.2,15Z"/><path class="cls-2" d="M19.8,17a.76.76,0,0,1-.4-.2L16.6,13a.6.6,0,0,1-.1-.4c0-.1.1-.3.2-.3L33,3.2a.35.35,0,0,0,.2-.1.52.52,0,0,1,.4.2.49.49,0,0,1-.1.7L20.2,16.9C20.1,17,20,17,19.8,17Z"/><path class="cls-1" d="M33.2,3.7,19.8,16.5,17,12.7l16.2-9m0-1a.9.9,0,0,0-.5.1L16.5,11.9c-.3.1-.4.4-.5.7a.78.78,0,0,0,.2.8L19,17.2a1,1,0,0,0,.7.4h.1a.91.91,0,0,0,.7-.3L33.9,4.4A.94.94,0,0,0,34,3.1.91.91,0,0,0,33.2,2.7Z"/></svg>
